X:1     %Music
T:Streets of Laredo
B:Singing Together, Spring 1977, BBC Publications
F:http://www.folkinfo.org/songs
M:3/4     %Meter
L:1/8     %
K:G
d2 |d3 c B2 |c2 d2 c2 |B3 A G2 | F2 D2
w:As I_ walked out in the streets of La-re-do,
 D2 |G4 G2 |A2 B2 c2 |B2 A2 G2 | A4 
w: As I walked out in La-re-do one day,
d2 |d3 c B2 |c2 d2 c2 |B3 A G2  | F2 D2
w: I spied a young cow-boy wrapped up in white lin-en,
 D2 |G3 G G2 |A2 B2 c2 |B2 G2 A2 | G4 z2 |]
w: Wrapped up in white lin-en and cold as the clay. 